img/hero/links/medium.svg

<svg width="20" height="12" viewBox="0 0 20 12" fill="none" xmlns="http://www.w3.org/2000/svg">
<path fill-rule="evenodd" clip-rule="evenodd" d="M11.2812 5.99941C11.2812 9.13597 8.75578 11.6786 5.6407 11.6786C2.52561 11.6786 0 9.13597 0 5.99941C0 2.86286 2.52542 0.320007 5.6407 0.320007C8.75598 0.320007 11.2812 2.86286 11.2812 5.99941ZM17.469 5.99941C17.469 8.9518 16.2063 11.3461 14.6487 11.3461C13.091 11.3461 11.8283 8.9518 11.8283 5.99941C11.8283 3.04703 13.0908 0.652692 14.6485 0.652692C16.2061 0.652692 17.4688 3.04626 17.4688 5.99941H17.469ZM19.0081 10.7892C19.556 10.7892 20 8.64403 20 5.99941C20 3.35403 19.5558 1.20959 19.0081 1.20959C18.4604 1.20959 18.0163 3.35422 18.0163 5.99941C18.0163 8.6446 18.4602 10.7892 19.0081 10.7892Z" fill="white"/>
</svg>

<svg width="20" height="12" fill="none" xmlns="http://www.w3.org/2000/svg"><path fill-rule="evenodd" clip-rule="evenodd" d="M11.281 6c0 3.136-2.525 5.679-5.64 5.679C2.526 11.679 0 9.136 0 5.999 0 2.863 2.525.32 5.64.32c3.116 0 5.641 2.543 5.641 5.68Zm6.188 0c0 2.952-1.263 5.346-2.82 5.346-1.558 0-2.82-2.394-2.82-5.347 0-2.952 1.262-5.346 2.82-5.346 1.557 0 2.82 2.393 2.82 5.346Zm1.54 4.79c.547 0 .991-2.146.991-4.79 0-2.646-.444-4.79-.992-4.79s-.992 2.144-.992 4.79c0 2.645.444 4.79.992 4.79Z" fill="#fff"/></svg>
